symbolic/24x24/actions/remove-link.svg

<svg xmlns="http://www.w3.org/2000/svg" width="24" height="24" viewBox="0 0 24 24">
 <defs>
  <style id="current-color-scheme" type="text/css">
   .ColorScheme-Text { color:#323a41; } .ColorScheme-Highlight { color:#4285f4; } .ColorScheme-NeutralText { color:#ff9800; } .ColorScheme-PositiveText { color:#4caf50; } .ColorScheme-NegativeText { color:#f44336; }
  </style>
 </defs>
 <path style="fill:currentColor" class="ColorScheme-Text" d="M 5 0 C 2.23 0 0 2.23 0 5 C 0 7.77 2.23 10 5 10 L 7 10 L 7 8 L 5 8 C 3.338 8 2 6.662 2 5 C 2 3.338 3.338 2 5 2 L 7 2 L 7 0 L 5 0 z M 9 0 L 9 2 L 11 2 C 12.662 2 14 3.338 14 5 C 14 6.662 12.662 8 11 8 L 9 8 L 9 10 L 11 10 C 13.77 10 16 7.77 16 5 C 16 2.23 13.77 0 11 0 L 9 0 z M 5 4 L 5 6 L 11 6 L 11 4 L 5 4 z M 12.414062 11.050781 L 11 12.464844 L 12.060547 13.525391 L 11 14.585938 L 12.414062 16 L 13.474609 14.939453 L 14.535156 16 L 15.949219 14.585938 L 14.888672 13.525391 L 15.949219 12.464844 L 14.535156 11.050781 L 13.474609 12.111328 L 12.414062 11.050781 z" transform="translate(4 4)"/>
</svg>

<svg xmlns="http://www.w3.org/2000/svg" width="24" height="24"><defs><style id="current-color-scheme" type="text/css"></style></defs><path style="fill:currentColor;color:#323a41" d="M5 0C2.23 0 0 2.23 0 5s2.23 5 5 5h2V8H5C3.338 8 2 6.662 2 5s1.338-3 3-3h2V0H5zm4 0v2h2c1.662 0 3 1.338 3 3s-1.338 3-3 3H9v2h2c2.77 0 5-2.23 5-5s-2.23-5-5-5H9zM5 4v2h6V4H5zm7.414 7.05L11 12.466l1.06 1.06-1.06 1.06L12.414 16l1.06-1.06L14.536 16l1.414-1.414-1.06-1.06 1.06-1.061-1.414-1.414-1.06 1.06-1.06-1.06z" transform="translate(4 4)"/></svg>
